!!!COM:	Martini, Johannes
!!!CDT:	~1440///-~1497//
!!!OTL:	Ad te levavi
!!!AGN:	Motet
!!!SCT:	Mar2002
!!!SCA:	Mar2002
!!!voices:	2
**kern	**kern
*staff2	*staff1
*Ivox	*Ivox
*I"Tenor	*I"Superius
*I'T	*I'S
*>[A,B,C,D,E,F,G]	*>[A,B,C,D,E,F,G]
*>A	*>A
*clefF4	*clefG2
*k[]	*k[]
*M2/1	*M2/1
*met(C)	*met(C)
=1-	=1-
!!LO:TX:Z=8:t=Choir 1
!!section: Qui habitas
!!!OMD: Qui habitas
1F	1f
2A\	2f/
2A\	2f/
=2	=2
1G	1e
1F	1f
=3	=3
1G	2e/
.	2.d/
2F\	.
.	4c/
2E\	[2c/
=4	=4
1D	2c/]
.	2B/
1Cl	1cl
=5||	=5||
*>B	*>B
*k[b-]	*
!!LO:TX:Z=8:t=Choir 2
!!section: Ecce sicut
!!!OMD: Ecce sicut
1F	1f
1A	1f
=6	=6
2A\	2f/
2A\	2f/
2A\	2f/
2A\	2f/
=7	=7
2A\	2f/
2A\	2f/
1B-	1g
=8	=8
1F	1f
1r	1r
=9	=9
1A	1f
2A\	2f/
2A\	2f/
=10	=10
1A	1f
2A\	2f/
2A\	2f/
=11	=11
1A	1f
2G\	2e/
[2F\	4f/
.	4e/
=12	=12
2F\]	4d/
.	4c/
2E\	1c
1D	.
.	2B/
=13	=13
0Cl	0cl
=14||	=14||
*>C	*>C
*k[]	*
!!LO:TX:Z=8:t=Choir 1
!!section: Sicut oculi
!!!OMD: Sicut oculi
2F\	2f/
2F\	2f/
2A\	2f/
2A\	2f/
=15	=15
1A	1f
2A\	2f/
2G\	2e/
=16	=16
2F\	2d/
2G\	2e/
2A\	2f/
2B-i\	2g/
=17	=17
1A	1a
1c	2a/
.	[2g/
=18	=18
2B-i\	2g/]
2A\	1f
1G	.
.	2e/
=19	=19
1F	1f
1r	1r
=20	=20
2A\	2f/
2A\	2f/
2A\	2f/
2A\	2f/
=21	=21
2A\	2f/
2A\	2f/
1A	1f
=22	=22
2A\	2f/
2A\	2f/
2A\	2f/
2A\	2f/
=23	=23
2G\	2e/
2F\	1d
1E	.
.	2c#i/
=24	=24
1D	1d
1A	2r
.	2f/
=25	=25
2A\	2f/
2A\	2f/
1A	1f
=26	=26
1G	2e/
.	1d
2F\	.
2E\	[2c/
=27	=27
1D	2c/]
.	2B/
1Cl	1cl
=28||	=28||
*>D	*>D
*k[b-]	*
!!LO:TX:Z=8:t=Choir 2
!!section: Miserere nostri
!!!OMD: Miserere nostri
2F\	2f/
2F\	2f/
2A\	2f/
2A\	2f/
=29	=29
2A\	2f/
2A\	2f/
2A\	2f/
2A\	2f/
=30	=30
1A	1f
2A\	2f/
2F\	2f/
=31	=31
2G\	2e/
2A\	2f/
1B-	1g
=32	=32
1F	1f
1r	1r
=33	=33
2A\	2f/
2A\	2f/
1A	1f
=34	=34
1A	1f
2A\	2f/
2A\	2f/
=35	=35
2A\	2f/
2A\	2f/
1A	1f
=36	=36
1A	1f
2G\	2e/
2A\	2f/
=37	=37
2F\	2d/
2E\	1c
1D	.
.	2B/
=38	=38
0Cl	0cl
=39||	=39||
*>E	*>E
*k[]	*
!!section: Quia multum
!!!OMD: Quia multum
!!LO:TX:Z=8:t=Choir 1
2F\	2f/
2F\	2f/
1A	1f
=40	=40
2A\	2f/
2A\	2f/
2A\	2f/
2A\	2f/
=41	=41
1A	1f
2G\	2e/
2F\	2d/
=42	=42
2E\	2c/
2F\	1f
1G	.
.	2e/
=43	=43
1F	1f
1r	1r
=44	=44
2A\	2f/
2A\	2f/
2A\	2f/
2A\	2f/
=45	=45
2A\	2f/
2A\	2f/
2A\	2f/
2A\	2f/
=46	=46
1A	1f
2G\	2e/
2F\	2d/
=47	=47
2G\	2e/
2A\	1f
1F	.
.	4e/
.	4d/
=48	=48
2E\	2c/
2D\	1d
2F\	.
2E\	[2c/
=49	=49
1D	2c/]
.	2B/
1Cl	1cl
=50||	=50||
*>F	*>F
*k[b-]	*
!!LO:TX:Z=8:t=Choir 2
!!section: Gloria Patri
!!!OMD: Gloria Patri
1F	1f
2A\	2f/
2A\	2f/
=51	=51
1A	1f
1G	1e
=52	=52
2A\	2f/
1B-	1g
2A\	[2f/
=53	=53
1G	2f/]
.	2e/
1F	1f
=54	=54
1r	1r
1A	1f
=55	=55
2A\	2f/
2A\	2f/
1A	1f
=56	=56
2G\	2e/
2A\	1f
1F	.
.	4e/
.	4d/
=57	=57
2E\	2c/
2F\	1d
2G\	.
2E\	[2c/
=58	=58
1D	2c/]
.	2B/
1Cl	1cl
=59||	=59||
*>G	*>G
*k[]	*
!!LO:TX:Z=8:t=Choir 1
!!section: Sicut erat
!!!OMD: Sicut erat
2F\	2f/
2F\	2f/
2A\	2f/
2A\	2f/
=60	=60
2A\	2f/
2A\	2f/
2A\	2f/
2A\	2f/
=61	=61
1A	1f
2G\	2e/
2F\	2d/
=62	=62
2E\	2c/
2F\	1f
1G	.
.	2e/
=63	=63
1F	1f
1r	1r
=64	=64
2A\	2f/
2A\	2f/
2A\	2f/
2A\	2f/
=65	=65
1A	1f
2G\	2e/
2F\	2d/
=66	=66
2G\	2e/
2A\	1f
1F	.
.	4e/
.	4d/
=67	=67
2E\	2c/
2D\	2.d/
2F\	.
.	4c/
2E\	[2c/
=68	=68
1D	2c/]
.	2B/
1Cl	1cl
==	==
*-	*-
!!!RDF**kern: l=long note in original notation
!!!RDF**kern: i=editorial accidental
!!!ENC:	Chris Gage 12-04-2013
!!!END:	2014/10/05/
!!!EED:	Jesse Rodin
!!!EEV:	2014/10/15/
!!!ONB:	Translated from MusicXML and edited on 2014/10/15/ by Craig Sapp
!!muse2ps: C^@{COM}^i2I150v85,150Q16
